app/dist/common/images/akerna.svg

<svg height="18" viewBox="0 0 18 18" width="18" xmlns="http://www.w3.org/2000/svg"><path d="m0 0h18v18h-18z" fill="#f0f3fa"/><path d="m9 14.45a5.51 5.51 0 0 0 5.45-5.45c0-2.8-2.32-5.45-5.45-5.45a5.56 5.56 0 0 0 -5.45 5.45c0 2.8 2.32 5.45 5.45 5.45zm0 .55a6 6 0 1 0 0-12 6 6 0 0 0 0 12z" fill="#6dc8b7" fill-rule="evenodd"/><path d="m5 8.42v-1.49l8 4.1v1.47z" fill="#6dc8b7"/><path d="m6.15 9.53-1.15 2.47h1.45l.86-1.88zm4.12-.42-1.26-2.65-.75 1.62-1.15-.59 1.16-2.49h1.47l2.4 5.06z" fill="#54575c"/></svg>

<!-- by TradingView --><svg xmlns="http://www.w3.org/2000/svg" width="18" height="18" viewBox="0 0 18 18"><path fill="#F0F3FA" d="M0 0h18v18H0z"/><path fill-rule="evenodd" d="M9 14.45A5.51 5.51 0 0 0 14.45 9c0-2.8-2.32-5.45-5.45-5.45A5.56 5.56 0 0 0 3.55 9c0 2.8 2.32 5.45 5.45 5.45zM9 15A6 6 0 1 0 9 3a6 6 0 0 0 0 12z" fill="#6DC8B7"/><path d="M5 8.42V6.93l8 4.1v1.47L5 8.42z" fill="#6DC8B7"/><path d="M6.15 9.53L5 12h1.45l.86-1.88-1.16-.59zm4.12-.42L9.01 6.46l-.75 1.62-1.15-.59L8.27 5h1.47l2.4 5.06-1.87-.95z" fill="#54575C"/></svg>
